X:189
T:Reel de Bellechasse
Z:robin.beech@mcgill.ca
M:4/4
L:1/8
K:D
d2fd cdec | defd A2dc | B2gf edcB | AaaA aABc | 
d2fd cdec | defd A2dc | B2gf edcB | Afec d2 (3ABc ::
f2fg fedc | BggB ggAc | e2ef edcB | AaaA a2Ad | 
f2fg fedc | BggB g2Ac | e2ef edcB | Afec d2Ad :|

